X:99004
T:Davy's Locker
P:The Boatie Rows
C:Traditional
R:Reel (8x24) ABB
B:RSCDS Gr-4
Z:Anselm Lingnau <anselm@strathspey.org>
M:2/4
L:1/16
K:F
F|"F"A2c2 "C"c3d|"F"c2f2 "Bb"gfed|"F/A"c2A2 "G7/B"G3F|"C"G6 F2|
  "F"A2c2 "C"c3d|"F"c2f2 "Bb"gfed|"F/A"c2A2 "C"G3A|"F"F6||
|:c2|"F"f2c2 c2de|f2c2 c2f2|"Bb"d3c d2f2|"C"g6 e2|
     "Dm"f2a2 "Bb"d3f|"F"c3f c2A2|"Gm"G3F "C7"G2A2|"F"F6:|
